!!!!SEGMENT: pl-wumfc--n8918--001-002_szymanowski-karol--dwanascie-piesni-op-17-ii-tajemnica-znow-zapadl-ksiezyc.krn
!!!cenid: 19xx:74
!!!COM: Szymanowski, Karol
!!!COM-rismID: pe30106403
!!!CDT: 1882-1937
!!!CNT: Polish
!!!GTL: Dwanaście pieśni Op. 17
!!!OTL: II. Tajemnica/Znów zapadł księżyc
!!!OMV: 002
!!!PDT:
!!!AGN: Secular; Song
!!!YEC: Copyright 2022 Narodowy Instytut Fryderyka Chopina (https://polishscores.org)
!!!YEM: License CC-BY-4.0 (https://creativecommons.org/licenses/by/4.0)
!!!SMS-siglum: PL-Wumfc
!!!SMS-shelfmark: N8918
!!!SMS-variant:
!!!SMS-altvar:
!!!SMS-shelfwork: 001-002 G
!!!NIFC-rismSourceID: 1001170644
!!!NIFC-rismChildID: 1001170647
!!!NIFC-islandoraID: pl-wumfc:7726
!!!URL-pdf-islandora: https://repozytorium.nifc.pl/islandora/object/pl-wumfc%3A7726/datastream/PDF/view
!!!URL-scan: https://polish.musicsources.pl/pl/lokalizacje/galeria/druki-muzyczne/12685/3 @EN{Scan on Polish Music Sources Website} @PL{Skany w portalu Dziedzictwo Muzyki Polskiej w otwartym dostępie}
!!!IIIF:
!!!ONB-nifc: UWAGA: str. 3.
!!!OMD: Lento misterioso e rubato.
!!!AIN: 1 piano 1 vox
!!!key: Bb
**kern	**kern	**dynam	**kern	**text	**text	**dynam
*part2	*part2	*part2	*part1	*part1	*part1	*part1
*staff3	*staff2	*	*staff1	*staff1	*staff1	*
*ICklav	*ICklav	*	*ICvox	*	*	*
*Ipiano	*Ipiano	*	*Ivox	*	*	*
*I"[Piano]	*I"[Piano]	*	*I"[Canto]	*	*	*
*clefF4	*clefG2	*	*clefG2	*	*	*
*k[]	*k[]	*	*k[]	*	*	*
*c#:	*c#:	*	*c#:	*	*	*
*M6/8	*M6/8	*	*M6/8	*	*	*
=1	=1	=1	=1	=1	=1	=1
*	*^	*	*	*	*	*
*	*	*^	*	*	*	*	*
!	!LO:TX:b:i:t=legatissimo	!	!	!	!	!	!	!
8DDD/L 8DD	(8aa-X/L 8aaa-X	16aa-\LL	4ryy	.	2.r	.	.	.
.	.	16bb-X\	.	.	.	.	.	.
*clefG2	*	*	*	*	*	*	*	*
16f#X/L 16cc	8.ee-X/ 8.eee-X	16ee-\	.	.	.	.	.	.
16c/J	.	16aan\	.	pp	.	.	.	.
*clefF4	*	*	*	*	*	*	*	*
8DD/J 8D	.	16aa-X\	8aa-/	.	.	.	.	.
.	16een/Jk 16eeen	16ee\JJ	.	.	.	.	.	.
(16d\LL 16g#X	8.b-X/L 8.bb-X	16b-\LL	8ryy	<	.	.	.	.
16G#X\J)	.	16ff\	.	.	.	.	.	.
8DD\ 8D	.	16een\	4ryy	.	.	.	.	.
.	16bn/K 16bbn	16b\J	.	.	.	.	.	.
(16fn\L 16b	8dd/J) 8ddd	8dd\J	.	.	.	.	.	.
16B\JJ)	.	.	.	[	.	.	.	.
*	*v	*v	*v	*	*	*	*	*
=2	=2	=2	=2	=2	=2	=2
*M5/8	*M5/8	*	*M5/8	*	*	*
*	*^	*	*	*	*	*
8BBB-X\L 8BB-X	(8.g#X/L 8.gg#X	16g#\LL	.	4r	.	.	.
.	.	16ee-X\	.	.	.	.	.
(16c\L 16f#X	.	16dd\	.	.	.	.	.
!	!	!	!LO:HP:t=poco cresc.	!	!	!	!
16F#X\JJ)	16a/Jk) 16aa	16a\JJ	<	.	.	.	.
8BBB-\L 8BB-	(8.d#X/L 8.dd#X	16d#\LL	.	4r	.	.	.
.	.	16b-X\	.	.	.	.	.
(16G\L 16c#X	.	16a\	.	.	.	.	.
16C#X\J)	16e/K 16een	16en\J	.	.	.	.	.
8BBB-\J 8BB-	8gn/J) 8ggn	8g\J	.	8r	.	.	.
*	*v	*v	*	*	*	*	*
!!LO:LB:g=original
=3	=3	=3	=3	=3	=3	=3
*M4/8	*M4/8	*	*M4/8	*	*	*
*	*^	*	*	*	*	*
8AAA/L 8AA	(8.c#X/L 8.cc#X	16c#\LL	.	2r	.	.	.
.	.	16g#X\	.	.	.	.	.
(16F/L 16Bn	.	16gn\	.	.	.	.	.
16BBn/J)	16d/Jk 16ddn	16dn\JJ	.	.	.	.	.
!	!LO:TX:b:i:t=rit.	!	!	!	!	!	!
8AAA/ 8AA	8f/L 8ff	4ryy	.	.	.	.	.
(16G-X/L 16c	8B-X/J) 8b-X	.	>	.	.	.	.
16C/JJ)	.	.	.	.	.	.	.
*	*v	*v	*	*	*	*	*
=4	=4	=4	=4	=4	=4	=4
*M3/8	*M3/8	*	*M3/8	*	*	*
*	*^	*	*^	*	*	*
8AAA-X/L 8AA-X	(8.Bn/L 8.bn	16Bn\LL	]	4r	4ryy	.	.	.
.	.	16g\	.	.	.	.	.	.
(16A/L 16e-X	.	16g-X\	.	.	.	.	.	.
16E-X/JJ)	16c/Jk 16cc	16c\JJ	.	.	.	.	.	.
!	!LO:TX:b:i:t=rall.	!	!	!	!	!	!	!
8r	8aa-X\) 8aaa-X	8ryy	.	16cc/	8ccn\	In	Znów	.
.	.	.	.	16cc/	.	die	.	.
*	*v	*v	*	*	*	*	*	*
*	*	*	*v	*v	*	*	*
=5	=5	=5	=5	=5	=5	=5
*M6/8	*M6/8	*	*M6/8	*	*	*
*	*^	*	*	*	*	*
!	!LO:TX:b:i:t=a tempo	!	!	!	!	!	!
8GGG/L 8GG	(8dd-X/L 8ddd-X	16dd-\LL	<	4dd-X\	dunk-	za-	.
.	.	16ee-X\	.	.	.	.	.
*clefG2	*	*	*	*	*	*	*
(16fn/L 16bn	8.a-X/ 8.aa-X	16a-\	.	.	.	.	.
16Bn/J)	.	16ddn\	.	.	.	.	.
*clefF4	*	*	*	*	*	*	*
8GGG/J 8GG	.	16dd-X\	[	8ff\	-le	-padł	.
.	16an/Jk 16aan	16a\JJ	.	.	.	.	.
(16c#X\LL 16g	8.e-X/L 8.ee-X	16e-\LL	>	(8.ee-X\	Bergs-	księ-	.
16G\J)	.	16b-X\	.	.	.	.	.
8GGG\ 8GG	.	16an\	.	.	.	.	.
.	16en/K 16een	16e\J	.	16b-X\)	.	.	.
(16B-X\L 16e	8g/J) 8gg	8g\J	.	8b-\	-schlucht	-życ	.
16E\JJ)	.	.	]	.	.	.	.
*	*v	*v	*	*	*	*	*
!!LO:LB:g=original
=6	=6	=6	=6	=6	=6	=6
*M5/8	*M5/8	*	*M5/8	*	*	*
*	*^	*	*	*	*	*
*	*	*	*^	*	*	*	*
!LO:TX:t=P:problem=mixed beam	!	!	!	!	!	!	!	!
8EEE-X/L 8EE-X	(8.c#X/L 8.cc#X	16c#\LL	.	.	4r	.	.	.
.	.	16a-X\	.	.	.	.	.	.
(16Bn\L 16f	.	16g\	.	.	.	.	.	.
!	!	!	!LO:HP:a	!LO:HP:a	!	!	!	!
16F\JJ)	16d/Jk) 16dd	16d\JJ	<	<	.	.	.	.
8EEE-/L 8EE-	(8.G#X/L 8.g#X	16G#\LL	.	.	8.g#X/	kehrt	W ciem-	.
.	.	16e-X\	.	.	.	.	.	.
(16F#X/L 16c	.	16d\	.	.	.	.	.	.
16C/J)	16A/K 16an	16An\J	.	.	16a/	der	-ny	.
8EEE-/J 8EE-	8cn/J) 8ccn	8c\J	[	.	[8cc\	Mond	gór-	.
*	*v	*v	*	*	*	*	*	*
=7	=7	=7	=7	=7	=7	=7	=7
*M4/8	*M4/8	*	*M4/8	*	*	*	*
*	*^	*	*	*	*	*	*
!LO:TX:t=P:problem=mixed beam	!	!	!LO:HP:a	!	!	!	!	!
8DDD/L 8DD	(8.F#X/L 8.f#X	16F#\LL	>	.	16cc\]	.	.	.
.	.	16d-X\	.	.	16cc\	zu-	-ski	.
!	!	!	!	!LO:HP:a:t=dim.	!	!	!	!
16E\L 16B-X	.	16cn\	.	>	4cc\	-rück.	jar.	.
16BB-X\JJ	16G/Jk 16g	16G\JJ	.	.	.	.	.	.
!	!LO:TX:b:i:t=rit.	!	!	!	!	!	!	!
8DDD/L 8DD	4B-X/) 4b-X	4ryy	]	.	.	.	.	.
8DDD-X/J 8DD-X	.	.	.	.	8r	.	.	.
*	*v	*v	*	*	*	*	*	*
=8	=8	=8	=8	=8	=8	=8	=8
*M6/8	*M6/8	*	*M6/8	*	*	*	*
*	*^	*	*	*	*	*	*
!	!	!	!LO:DY:b	!	!	!	!	!
8CCC/L 8CC	(8gg-X/L 8ggg-X	16gg-\LL	pp	.	8r	.	.	.
.	.	16aa-X\	<	.	.	.	.	.
*clefG2	*	*	*	*	*	*	*	*
16e/L 16b-X	8.cc#X/ 8.ccc#X	16cc#\	.	.	8r	.	.	.
16B-X/J	.	16ggn\	.	.	.	.	.	.
*clefF4	*	*	*	*	*	*	*	*
8CC/J 8C	.	16gg-X\	.	.	16ddn\	Ei-	Nad	.
.	16dd/Jk 16dddn	16ddn\JJ	.	.	16dd\	-ne	po-	.
!	!	!	!	!LO:HP:a	!	!	!	!
16c\LL 16f#X	8.a-X/L 8.aa-X	16a-\LL	.	<	(8.dd\	Stim-	-to-	.
16F#X\J	.	16ee-X\	.	.	.	.	.	.
8CC\ 8C	.	16dd\	.	.	.	.	.	.
.	16an/K 16aan	16a\J	.	.	16cc#X\)	.	.	.
16e-X\L 16a	8ccn/J) 8cccn	8cc\J	.	.	8ccn\	-me	-kiem	.
16A\JJ	.	.	[	.	.	.	.	.
*	*	*	*v	*v	*	*	*	*
*	*v	*v	*	*	*	*	*
!!LO:PB:g=original
=9	=9	=9	=9	=9	=9	=9
*M3/4	*M3/4	*	*M3/4	*	*	*
*	*^	*	*	*	*	*
*	*	*^	*	*	*	*	*
!LO:TX:t=P:problem=mixed beam	!	!	!	!	!	!	!	!
8AAA-X/L 8AA-X	(8.c/L 8.cc	16c\LL	4ryy	mf	8.gg-X\	singt	spie-	.
.	.	16g\	.	.	.	.	.	.
(16an\L	.	16g-X\	.	>	.	.	.	.
16An\JJ)	16c#X/Jk 16cc#X	16c#\JJ	.	.	16ff\	am	-wa	.
!LO:TX:t=P:problem=mixed beam	!	!	!	!	!	!	!	!
8AAA-/L 8AA-	8.d/L 8.dd	16d\LL	8ryy	.	8.eenZ\	Was-	ja-	.
.	.	16cc#\	.	.	.	.	.	.
!	!	!	!LO:N:vis=4	!	!	!	!	!
(16en\L	.	16ccn\	[<8cc/	.	.	.	.	.
16En\JJ)	16d#X/Jk 16dd#X	16d#\JJ	.	.	16ee-X\	-ser-	-kiś	.
!LO:TX:t=P:problem=mixed beam	!	!	!	!	!	!	!	!
8AAA-/L 8AA-	8.e/L 8.ee	16cc\LL]	4ryy	.	4ddnZ\	-sturz:	głos:	.
!	!LO:TX:b:i:t=rall.	!	!	!	!	!	!	!
.	.	16bn\	.	]	.	.	.	.
(16dn\L	.	16b-X\	.	.	.	.	.	.
16Dn\JJ)	16f/Jk) [16ff	[16f\JJ	.	.	.	.	.	.
*	*	*v	*v	*	*	*	*	*
=10	=10	=10	=10	=10	=10	=10	=10
*^	*	*	*	*	*	*	*
!	!	!	!	!	!LO:TX:a:t=Sehr innig.	!	!	!
8r	[4GGGnZ\ [4GGnZ	(8.f/L 8.ff]	16f\LL]	pp	8r	.	.	.
!	!	!	!LO:TX:b:i:t=dolciss.	!	!	!	!	!
.	.	.	16cc-X\	.	.	.	.	.
!	!	!	!	!	!	!	!	!LO:HP:a
(4d^^/	.	.	[16b-X\	.	16b-X\	O	Ser-	<
.	.	16b-/Jk 16bb-X	16b-\JJ]	<	16b-\	Ge-	-ce	.
!	!	!	!	!	!	!	!	!LO:HP:a
.	8GGG\] 8GG]	8.a/L 8.aa	16a\LL	.	4.dd^^\	-lieb-	dro-	[ >
.	.	.	16ccn\	.	.	.	.	.
16f/LL	8r	.	16bn\	[	.	.	.	.
16c/	.	16a-X/Jk 16aa-X	16a-\JJ	.	.	.	.	.
16Bn/	8r	8.g/L 8.gg	16g\LL	>	.	.	.	.
16b/JJ)	.	.	16ee-X\	.	.	.	.	.
8rB	16r	.	16dd\	.	8dd\	-tes,	-gie,	]]
!	!	!LO:TX:b:i:t=rit.	!	!	!	!	!	!
.	[<16EEE\ [>16EE	16f#X/Jk) 16ff#X	16f#\JJ	]	.	.	.	.
*v	*v	*	*	*	*	*	*	*
!!LO:LB:g=original
=11	=11	=11	=11	=11	=11	=11	=11
!LO:TX:t=P:problem=mixed beam	!	!	!	!	!	!	!
8EEE/L] 8EE]	(16g#X/LL	8d\L 8f#X	p	16r	.	.	.
.	16G#X/	.	.	8ff#X^^\	dei-	twa	.
(16c#X\L	16A/	8c#X\J 8e#X	<	.	.	.	.
!	!	!	!	!	!	!	!LO:HP:a
16C#X\JJ)	16a/JJ)	.	.	16ffn\	-ne	naj-	<
!LO:TX:t=P:problem=mixed beam	!	!	!	!	!	!	!
8DDD-X/L 8DD-X	(16b-X/LL	8f-X\L 8a-X	<	8b-X\	höch-	-wyż-	.
.	16B-X/	.	.	.	.	.	.
!	!	!	!	!	!	!	!LO:HP:a
(16a\L	16f-/	8d-X\J 8f-	.	8an/	-ste	-sza	[ >
16An\JJ)	16dd-X/JJ)	.	[	.	.	.	.
(8EEE-X/L 8EE-X	(8.gn/L 8.ccn	16gn\LL	>	8.gn/	Won-	roz-	.
.	.	16cn\J	.	.	.	.	.
!	!LO:TX:b:i:t=rall.	!	!	!	!	!	!
8EEEn/J) 8EEn	.	8Bn\J 8c#X	]	.	.	.	.
.	16g/Jk) 16bn	.	.	16g/	-ne	-kosz,	]
*	*v	*v	*	*	*	*	*
=12	=12	=12	=12	=12	=12	=12
*M6/8	*M6/8	*	*M6/8	*	*	*
*^	*^	*	*	*	*	*
!	!	!LO:TX:a:i:t=(Sehr gefühlvoll)\n(poco più lento)	!	!	!LO:TX:a:i:t=(poco più lento)	!	!	!
4EEE#X/ 4EE#X	4.ryy	(8d#X/L 8bn	16Bn\LL	p <	8r	.	.	.
.	.	.	16g#X\	.	.	.	.	.
.	.	8.A#X/ 8.a#X	16f##X\	.	8a#X/	und	twój	.
.	.	.	16d#\J	.	.	.	.	.
8EEEn/ [<8EEn	.	.	8dn\J	[ mf	8bnZ\	dein	naj-	.
.	.	16B/Jk) 16b	.	.	.	.	.	.
(8C#X/L	4.EE\_	(8.b^^/L 8.dd#X	(8c#X\L	>	(8.dd#X^^\	tief-	-wię-	.
!LO:TX:a:i:t=rall.	!	!	!	!	!	!	!	!
8Dn/	.	.	8B#X\	.	.	.	.	.
!	!	!	!	!	!LO:TX:a:i:t=rall.	!	!	!
.	.	16an/K 16cc#X	.	.	16cc#X\)	.	.	.
8D#X/J)	.	[<8gn/J) [8b	[<8c#\J)	] pp	8b\	-ster	-kszy	.
*v	*v	*	*	*	*	*	*	*
*	*v	*v	*	*	*	*	*
=13	=13	=13	=13	=13	=13	=13
*M3/8	*M3/8	*	*M3/8	*	*	*
*^	*	*	*	*	*	*
8E/	8EE\]	((16c#/LL] 16g] 16b]	p <	4.b\	Schmerz	ból	.
.	.	16cn/JJ) 16ccn	.	.	.	.	.
16CCC#X/ 16CC#X	4ryy	(16b\LL 16dd#X	.	.	.	.	.
(16g\LL	.	16e\JJ) 16ee	[ >	.	.	.	.
16G\JJ)	.	(16cc#X\LL 16ee#X	.	.	.	.	.
16r	.	16f#X\JJ)) [16ff#X	]]	.	.	.	.
*v	*v	*	*	*	*	*	*
!!LO:LB:g=original
=14	=14	=14	=14	=14	=14	=14
*M6/8	*M6/8	*	*M6/8	*	*	*
*	*^	*	*	*	*	*
!	!	!	!	!LO:TX:a:t=Tempo I.	!	!	!
8CCCn\L 8CCn	(8gg-X/L 8ggg-X	16gg-\LL]	pp	4r	.	.	.
.	.	16aa-X\	.	.	.	.	.
(16e\L 16b-X	8.dd-X/ 8.ddd-X	16dd-\	.	.	.	.	.
16B-X\J)	.	16ggn\	.	.	.	.	.
8CC\J 8C	.	16gg-X\	.	8r	.	.	.
.	16ddn/Jk 16dddn	16dd\JJ	<	.	.	.	.
(16c\LL 16f#X	8.g#/L 8.gg#	16g#X\LL	.	(8.dd^^\	Sind	to	.
16F#X\J)	.	16ee-X\	.	.	.	.	.
8CC\ 8C	.	16ddn\	.	.	.	.	.
.	16a/K 16aan	16an\J	.	16cc#X\)	.	.	.
(16e-X\L 16a	8cc/J) 8ccc	8cc\J	[	8ccn\	mein	mój	.
16A\JJ)	.	.	.	.	.	.	.
=15	=15	=15	=15	=15	=15	=15	=15
*^	*	*^	*	*	*	*	*
!LO:TX:t=P:problem=mixed beam	!	!	!	!	!	!	!	!	!
8AAA-X/L 8AA-X	2ryy	(8.c/L 8.cc	16c\LL	4ryy	mp	[4ee-X\	Glück	czar	.
.	.	.	16g\	.	.	.	.	.	.
(16an\L	.	.	16g-X\	.	.	.	.	.	.
!	!	!	!	!	!LO:HP:t=dim. e rall. molto	!	!	!	!
16An\JJ)	.	16c#X/Jk) 16cc#X	16c#\JJ	.	>	.	.	.	.
!LO:TX:t=P:problem=mixed beam	!	!	!	!	!	!	!	!	!
8AAA-/L 8GG	.	(8.d/L 8.dd	16d\LL	8ryy	.	8ee-\]	.	.	.
.	.	.	16cc#\	.	.	.	.	.	.
(16en\L	.	.	16ccn\	[<8cc/	.	8r	.	.	.
16En\JJ)	.	16d#X/Jk) 16dd#X	16d#\JJ	.	.	.	.	.	.
!LO:TX:t=P:problem=mixed beam	!	!	!	!	!	!	!	!	!
8AAA-/L 8AA-	8ryy	(8.en/L 8.een	16cc\LL]	4ryy	.	4r	.	.	.
.	.	.	16b\	.	.	.	.	.	.
(16e-X\L	8d-X\	.	16b-X\	.	.	.	.	.	.
16E-X\JJ)	.	16g-X/Jk) 16gg-X	16b--\JJ	.	.	.	.	.	.
*v	*v	*	*	*	*	*	*	*	*
*	*v	*v	*v	*	*	*	*	*
=16	=16	=16	=16	=16	=16	=16
2.AA-X;\ 2.E-X 2.cn	2.a-X;\ 2.aa-X	ppp	2.r;	.	.	.
==	==	==	==	==	==	==
*-	*-	*-	*-	*-	*-	*-
!!!system-decoration: s1{(s2,s3)}
!!!RDF**kern: < = below
!!!RDF**kern: > = above
!!!RDF**kern: Z = editorial accidental, paren
!!!ENC: Andrzej Gręziak
!!!END: 2023-09-26
!!!EED: Marta Chmielewska
!!!EEV: 2023-10-20
